{
  "type": "map",
  "version": "1.10",
  "tiledversion": "1.11.2",
  "orientation": "orthogonal",
  "renderorder": "right-down",
  "width": 60,
  "height": 46,
  "tilewidth": 32,
  "tileheight": 32,
  "infinite": false,
  "nextlayerid": 3,
  "nextobjectid": 16,
  "properties": [
    {
      "name": "regionId",
      "type": "string",
      "value": "10"
    },
    {
      "name": "regionName",
      "type": "string",
      "value": "Cavernas do Vazio"
    },
    {
      "name": "recommendedLevel",
      "type": "string",
      "value": "101-110"
    },
    {
      "name": "biome",
      "type": "string",
      "value": "cavern"
    },
    {
      "name": "layoutVersion",
      "type": "string",
      "value": "1"
    }
  ],
  "layers": [
    {
      "id": 1,
      "name": "Arte de terreno · Cloudflare AI",
      "type": "imagelayer",
      "image": "../realm-10.png",
      "imagewidth": 1900,
      "imageheight": 1450,
      "opacity": 1,
      "visible": true,
      "x": 0,
      "y": 0,
      "offsetx": 0,
      "offsety": 0,
      "repeatx": false,
      "repeaty": false
    },
    {
      "id": 2,
      "name": "Gameplay · pontos e limites",
      "type": "objectgroup",
      "draworder": "topdown",
      "opacity": 1,
      "visible": true,
      "x": 0,
      "y": 0,
      "objects": [
        {
          "id": 1,
          "name": "Entrada",
          "class": "PlayerSpawn",
          "x": 960,
          "y": 1270,
          "point": true,
          "properties": [
            {
              "name": "regionId",
              "type": "string",
              "value": "10"
            }
          ]
        },
        {
          "id": 2,
          "name": "Arena do chefe",
          "class": "BossSpawn",
          "x": 960,
          "y": 205,
          "point": true,
          "properties": [
            {
              "name": "name",
              "type": "string",
              "value": "Rainha das Larvas"
            },
            {
              "name": "level",
              "type": "string",
              "value": "110"
            }
          ]
        },
        {
          "id": 3,
          "name": "NPC",
          "class": "NPCSpawn",
          "x": 700,
          "y": 760,
          "point": true,
          "properties": [
            {
              "name": "name",
              "type": "string",
              "value": "Escavadora de Cavernas do Vazio"
            }
          ]
        },
        {
          "id": 4,
          "name": "Grupo 1",
          "class": "EnemySpawn",
          "x": 929,
          "y": 302,
          "point": true,
          "properties": [
            {
              "name": "enemy",
              "type": "string",
              "value": "Larva do Abismo"
            },
            {
              "name": "levelMin",
              "type": "string",
              "value": "101"
            },
            {
              "name": "levelMax",
              "type": "string",
              "value": "103"
            }
          ]
        },
        {
          "id": 5,
          "name": "Grupo 2",
          "class": "EnemySpawn",
          "x": 1500,
          "y": 596,
          "point": true,
          "properties": [
            {
              "name": "enemy",
              "type": "string",
              "value": "Larva do Abismo"
            },
            {
              "name": "levelMin",
              "type": "string",
              "value": "101"
            },
            {
              "name": "levelMax",
              "type": "string",
              "value": "110"
            }
          ]
        },
        {
          "id": 6,
          "name": "Grupo 3",
          "class": "EnemySpawn",
          "x": 388,
          "y": 823,
          "point": true,
          "properties": [
            {
              "name": "enemy",
              "type": "string",
              "value": "Larva do Abismo"
            },
            {
              "name": "levelMin",
              "type": "string",
              "value": "101"
            },
            {
              "name": "levelMax",
              "type": "string",
              "value": "110"
            }
          ]
        },
        {
          "id": 7,
          "name": "Grupo 4",
          "class": "EnemySpawn",
          "x": 943,
          "y": 1134,
          "point": true,
          "properties": [
            {
              "name": "enemy",
              "type": "string",
              "value": "Larva do Abismo"
            },
            {
              "name": "levelMin",
              "type": "string",
              "value": "101"
            },
            {
              "name": "levelMax",
              "type": "string",
              "value": "110"
            }
          ]
        },
        {
          "id": 8,
          "name": "Marco 1",
          "class": "Landmark",
          "x": 273,
          "y": 284,
          "point": true,
          "properties": [
            {
              "name": "kind",
              "type": "string",
              "value": "stalagmite_1"
            }
          ]
        },
        {
          "id": 9,
          "name": "Marco 2",
          "class": "Landmark",
          "x": 1645,
          "y": 310,
          "point": true,
          "properties": [
            {
              "name": "kind",
              "type": "string",
              "value": "stalagmite_2"
            }
          ]
        },
        {
          "id": 10,
          "name": "Marco 3",
          "class": "Landmark",
          "x": 302,
          "y": 1132,
          "point": true,
          "properties": [
            {
              "name": "kind",
              "type": "string",
              "value": "rock_cave_1"
            }
          ]
        },
        {
          "id": 11,
          "name": "Marco 4",
          "class": "Landmark",
          "x": 1604,
          "y": 1125,
          "point": true,
          "properties": [
            {
              "name": "kind",
              "type": "string",
              "value": "rock_cave_2"
            }
          ]
        },
        {
          "id": 12,
          "name": "Limite Norte",
          "class": "WorldBoundary",
          "x": 0,
          "y": -48,
          "width": 1900,
          "height": 48
        },
        {
          "id": 13,
          "name": "Limite Sul",
          "class": "WorldBoundary",
          "x": 0,
          "y": 1450,
          "width": 1900,
          "height": 48
        },
        {
          "id": 14,
          "name": "Limite Oeste",
          "class": "WorldBoundary",
          "x": -48,
          "y": 0,
          "width": 48,
          "height": 1450
        },
        {
          "id": 15,
          "name": "Limite Leste",
          "class": "WorldBoundary",
          "x": 1900,
          "y": 0,
          "width": 48,
          "height": 1450
        }
      ]
    }
  ],
  "tilesets": []
}
